src/components/Icon/assets/trash.svg

<svg width="24" height="24" viewBox="0 0 24 24" fill="none" xmlns="http://www.w3.org/2000/svg">
<path fill-rule="evenodd" clip-rule="evenodd" d="M14.0002 4.00009H10.0002V5.00009H14.0002V4.00009ZM16.0002 5.00009H20.0002V7.00009H19.0002V20.5001C19.0002 21.3115 18.3639 22.0001 17.5382 22.0001H6.46121C5.63598 22.0001 5.00021 21.311 5.00021 20.5001V7.00009H4.00021V5.00009H8.00021V3.50009C8.00021 2.67181 8.67193 2.00009 9.50021 2.00009H14.5002C15.3285 2.00009 16.0002 2.67181 16.0002 3.50009V5.00009ZM7.00021 20.0001V7.00009H17.0002V20.0001H7.00021ZM9.00021 10.0001V17.0001H11.0002V10.0001H9.00021ZM13.0002 17.0001V10.0001H15.0002V17.0001H13.0002Z" fill="#65676A"/>
</svg>

<svg xmlns="http://www.w3.org/2000/svg" width="24" height="24" viewBox="0 0 24 24">
    <path fill="#65676A" fill-rule="evenodd" d="M14.5 2c.828 0 1.5.672 1.5 1.5V5h4v2h-1v13.5c0 .764-.563 1.419-1.318 1.493l-.144.007H6.461c-.825 0-1.46-.689-1.46-1.5V7H4V5h4V3.5C8 2.672 8.67 2 9.5 2zM17 7H7v13h10V7zm-6 3v7H9v-7h2zm4 0v7h-2v-7h2zm-1-6h-4v1h4V4z"/>
</svg>
